X: 17020
T: Heart Of The Run
R: polka
M: 2/4
K: Bminor
|:f2 af|g/f/e/d/ B2|e2 ed|e/f/e/d/ BA|
f2 af|g/f/e/d/ B2|e/f/e/d/ BA|B2 B2:|
|:BG BG|B/A/B/c/ d2|BF BF|B/A/G/A/ F2|
BG BG|B/A/B/c/ d2|e/f/e/d/ BA|B2 B2:|

